X:117
T: Der junge Held
N: Q0060H
O: Mitteleuropa, Deutschland / Frankreich, Lothringen
N: Kleinere Melodievarianten aus anderer Quelle abgedruckt.
R: Ballade, Verfuehrung, Standesunterschied
M: 4/4
L: 1/8
K: G
=F2 | c2c2G2_B2 | A2G2=F2
F2 | _B2A2G2=F2 | G2EDC2
CC | =FFF2G2G2 | c4
d4 | c2GA_B2A2 | G4z2

@@@ Tune index: 993
